art/dp/systems_sel/mame-mame4all.svg

<?xml version="1.0" encoding="UTF-8" standalone="no"?>
<svg
   enable-background="new -54.704 -17.335 641.883 266.225"
   height="1592"
   viewBox="-54.704 -17.335 3840 1591.9999"
   width="3840"
   version="1.1"
   id="svg11"
   sodipodi:docname="mame-mame4all.svg"
   inkscape:version="1.3.2 (091e20e, 2023-11-25)"
   xmlns:inkscape="http://www.inkscape.org/namespaces/inkscape"
   xmlns:sodipodi="http://sodipodi.sourceforge.net/DTD/sodipodi-0.dtd"
   xmlns:xlink="http://www.w3.org/1999/xlink"
   xmlns="http://www.w3.org/2000/svg"
   xmlns:svg="http://www.w3.org/2000/svg">
  <defs
     id="defs11" />
  <sodipodi:namedview
     id="namedview11"
     pagecolor="#ffffff"
     bordercolor="#000000"
     borderopacity="0.25"
     inkscape:showpageshadow="2"
     inkscape:pageopacity="0.0"
     inkscape:pagecheckerboard="0"
     inkscape:deskcolor="#d1d1d1"
     inkscape:zoom="0.10482236"
     inkscape:cx="1917.5298"
     inkscape:cy="791.81578"
     inkscape:window-width="1312"
     inkscape:window-height="449"
     inkscape:window-x="0"
     inkscape:window-y="39"
     inkscape:window-maximized="0"
     inkscape:current-layer="svg11" />
  <linearGradient
     id="a">
    <stop
       offset="0"
       stop-color="#2a76a0"
       id="stop1" />
    <stop
       offset="1"
       stop-color="#223756"
       id="stop2" />
  </linearGradient>
  <linearGradient
     id="b"
     gradientUnits="userSpaceOnUse"
     x1="1865.2917"
     x2="1865.2917"
     xlink:href="#a"
     y1="-19.6436"
     y2="1065.1617" />
  <linearGradient
     id="c"
     gradientUnits="userSpaceOnUse"
     x1="1299.0249"
     x2="1299.0249"
     y1="725.16272"
     y2="1265.5714">
    <stop
       offset=".0051"
       stop-color="#9ca3a6"
       id="stop3" />
    <stop
       offset="1"
       stop-color="#454547"
       id="stop4" />
  </linearGradient>
  <linearGradient
     id="d"
     gradientUnits="userSpaceOnUse"
     x1="1607.7778"
     x2="1607.7778"
     xlink:href="#a"
     y1="817.88959"
     y2="1400.1749" />
  <linearGradient
     id="e"
     gradientUnits="userSpaceOnUse"
     x1="2419.5676"
     x2="2419.5676"
     xlink:href="#a"
     y1="817.88959"
     y2="1400.1749" />
  <g
     stroke-width="5.98238"
     transform="matrix(1 0 0 .99958616 -.000004 -.007174)"
     id="g11"
     style="fill:#ffffff">
    <path
       d="m2671.7598 564.71484c-12.5821 12.88277-25.1641 25.76565-37.7461 38.64844 0-181.60417 0-363.20833 0-544.812499-113.4355 115.755249-226.8713 231.510199-340.3067 347.265629 0-115.97722 0-231.95443 0-347.931644-209.5929 210.143364-419.187 420.285654-628.7793 630.429684 0-210.15755 0-420.3151 0-630.472653-195.8411 196.184223-391.6821 392.368613-587.5234 588.552733 0-196.55664 0-393.11328 0-589.669921-119.81308 116.419351-239.62676 232.838071-359.43946 349.257811 0-116.27604 0-232.55208 0-348.828123-232.33073 228.520833-464.66145 457.041663-696.992184 685.562503h220.107424c126.43376-130.77979 252.8662-261.56086 379.30078-392.33985v361.23047c103.52865-103.52864 207.05729-207.05729 310.58594-310.58594v372.80469c-86.75977 86.76041-173.51953 173.52084-260.2793 260.28123h232.6582c204.1732-204.17316 408.3464-408.34633 612.5195-612.51951v321.12891h284.8379c127.6921-127.69012 255.3842-255.38016 383.0762-383.07032v351.96094c100.8691-100.86849 201.7383-201.73696 302.6074-302.60547v333.71485h700.2363c49.1452-49.14519 98.2904-98.29037 147.4356-147.43555-183.4421 0-366.8841 0-550.3262 0 56.2973-53.553 112.5955-107.10504 168.8946-160.65625h184.1386c45.987-45.98893 91.974-91.97786 137.961-137.9668-57.3529 0-114.7058 0-172.0586 0 57.5278-51.97208 115.0549-103.945 172.582-155.91797h325.9473c36.9375-38.02408 73.875-76.048173 110.8125-114.072261-171.5482 0-343.0964 0-514.6446 0-175.2018 179.348961-350.4036 358.697921-525.6054 538.046871z"
       fill="#fff"
       id="path4"
       style="fill:#ffffff" />
    <path
       d="m595.89179 1065.0809 304.10233-304.08433v-285.20399l-310.58723 310.56928-.01196-359.39148-335.18079 346.71482h-308.918136l803.643016-790.445892v349.442782l359.43938-349.251346v588.079916l587.5235-588.534577-.0119 630.405257 628.778-630.429186v346.990006l340.3197-347.27716v544.64784l519.3363-531.6301814h579.7405v8.9855347-8.9855347h21.2315l-170.9884 176.0195714h-327.1405l-104.0036 93.97122h166.352l-199.9252 199.91918-184.5863-.012-103.7943 98.7332h547.6091l-209.3713 209.37137h-744.0465v-289.91212l-302.6068 302.60673v-351.96137l-339.2727 339.26676h-328.6361l-.012-277.31323-568.70303 568.70893zm322.04947-296.65422-278.68918 278.69512h269.48229l594.10413-594.12208v302.72039h303.2469l364.6679-364.64999v351.96136l302.6008-302.57682v315.2834h718.6573l173.4771-173.48902h-549.1526l141.4833-134.60355h184.335l164.013-164.01892h-169.6424l143.7267-129.85952h326.4465l136.1111-140.119304-550.9413-.017947-544.8393 557.731301v-544.70766l-340.3196 347.27716v-347.564314l-628.7661 630.441154v-630.441154l-587.5176 588.558504v-589.031112l-359.43332 349.239382v-349.059911l-741.827083 729.646961h257.439763l360.75546-373.15694v360.48027l310.58722-310.56927z"
       fill="url(#b)"
       id="path5"
       style="fill:#ffffff" />
    <path
       d="m1036.5566 1107.6465h266.7989v133.6113h64.707c0-44.5371 0-89.0742 0-133.6113h123.5645c22.7252-21.2363 45.4505-42.4727 68.1757-63.709-63.9134 0-127.8268 0-191.7402 0 0-86.1849 0-172.36979 0-258.55469-110.502 107.42123-221.0039 214.84249-331.5059 322.26369zm266.7989-188.89845v125.18945c-39.5039 0-79.0078 0-118.5117 0 39.5033-43.4549 79.0075-86.90913 118.5117-130.36328z"
       fill="#fff"
       id="path6"
       style="fill:#ffffff" />
    <path
       d="m1279.3667 1265.2394v-133.6105h-301.89478l414.57298-403.02094v291.34194h228.5329l-119.4981 111.679-109.0348-.012v133.6224zm-272.4076-145.5872h284.3784v133.6165h88.7366v-133.6165h116.2855l93.8755-87.7376h-204.1786v-5.9764h5.9884-5.9884v5.9764h-5.9824v-274.98605zm205.046-87.7376 79.3384-87.25897v81.28257 5.9764zm73.35-5.9764v-5.9883zm-46.2916-5.9883h40.3032v-44.34742z"
       fill="url(#c)"
       id="path7"
       style="fill:#ffffff" />
    <path
       d="m1297.8125 1546.3496h170.0449c133.6134-137.3696 267.2257-274.7404 400.8399-412.1094v232.6387h90.8652c0-157.1491 0-314.2982 0-471.44726-220.5833 216.97266-441.1667 433.94536-661.75 650.91796z"
       fill="#fff"
       id="path8"
       style="fill:#ffffff" />
    <path
       d="m1248.9703 1575.3241v-8.9736l6.2815 6.3892-6.2815-6.3892v8.9736h-21.9374l761.4912-749.0478v569.5704h-148.7998v-190.2815l-359.6487 369.7589zm21.9015-17.9471 201.6122-.012 385.1695-395.9977v216.5323h112.9294v-508.7775z"
       fill="url(#d)"
       id="path9"
       style="fill:#ffffff" />
    <path
       d="m2256.0508 974.72266v330.45504c-40.7507 0-81.5013 0-122.252 0 0-135.5338 0-271.0677 0-406.60153-23.5579 25.31055-47.1159 50.6211-70.6738 75.93164v392.37109h667.4902c-22.3795-20.5671-44.7591-41.1341-67.1386-61.7012-110.7552 0-221.5105 0-332.2657 0 0-136.0221 0-272.0442 0-408.06637-25.0533 25.87044-50.1067 51.74088-75.1601 77.61133z"
       fill="#fff"
       id="path10"
       style="fill:#ffffff" />
    <path
       d="m2034.1517 1395.8467v-432.7773l113.061-121.48419 15.5542-16.68486v451.29285h64.3105v-313.21952l133.096-137.41527v450.64669h314.5895l130.2244 119.6416zm17.9351-425.70613v407.75903h706.8182l-91.1355-83.7593h-325.5253l-.012-424.26442-97.2017 100.36639v323.89803h-100.2048v-423.63028z"
       fill="url(#e)"
       id="path11"
       style="fill:#ffffff" />
  </g>
</svg>

<?xml version="1.0" encoding="UTF-8" standalone="no"?>
<svg
   enable-background="new -54.704 -17.335 641.883 266.225"
   height="1592.9999"
   viewBox="0 0 3840 1592.9998"
   width="3840"
   version="1.1"
   id="svg15"
   sodipodi:docname="mame-mame4all.svg"
   inkscape:version="1.3.2 (091e20e, 2023-11-25)"
   xmlns:inkscape="http://www.inkscape.org/namespaces/inkscape"
   xmlns:sodipodi="http://sodipodi.sourceforge.net/DTD/sodipodi-0.dtd"
   xmlns:xlink="http://www.w3.org/1999/xlink"
   xmlns="http://www.w3.org/2000/svg"
   xmlns:svg="http://www.w3.org/2000/svg">
  <defs
     id="defs15" />
  <sodipodi:namedview
     id="namedview15"
     pagecolor="#ffffff"
     bordercolor="#000000"
     borderopacity="0.25"
     inkscape:showpageshadow="2"
     inkscape:pageopacity="0.0"
     inkscape:pagecheckerboard="true"
     inkscape:deskcolor="#d1d1d1"
     showgrid="false"
     inkscape:zoom="0.1767767"
     inkscape:cx="1773.4238"
     inkscape:cy="803.27328"
     inkscape:window-width="1312"
     inkscape:window-height="605"
     inkscape:window-x="0"
     inkscape:window-y="39"
     inkscape:window-maximized="0"
     inkscape:current-layer="svg15">
    <inkscape:grid
       id="grid15"
       units="px"
       originx="-4e-06"
       originy="-7.6999997e-07"
       spacingx="1"
       spacingy="0.99999996"
       empcolor="#0099e5"
       empopacity="0.30196078"
       color="#0099e5"
       opacity="0.14901961"
       empspacing="5"
       dotted="false"
       gridanglex="30"
       gridanglez="30"
       visible="false" />
  </sodipodi:namedview>
  <linearGradient
     id="a">
    <stop
       offset=".0051"
       stop-color="#cbecfc"
       id="stop1" />
    <stop
       offset=".401"
       stop-color="#bbe3f7"
       id="stop2" />
    <stop
       offset=".5431"
       stop-color="#2793c8"
       id="stop3" />
    <stop
       offset="1"
       stop-color="#1e8ec5"
       id="stop4" />
  </linearGradient>
  <linearGradient
     id="b"
     gradientTransform="matrix(5.98238,0,0,-5.98238,4185.0326,2534.5096)"
     gradientUnits="userSpaceOnUse"
     x1="-387.70309"
     x2="-387.70309"
     xlink:href="#a"
     y1="422.88211"
     y2="243.8304" />
  <linearGradient
     id="c">
    <stop
       offset="0"
       stop-color="#2a76a0"
       id="stop5" />
    <stop
       offset="1"
       stop-color="#223756"
       id="stop6" />
  </linearGradient>
  <linearGradient
     id="d"
     gradientUnits="userSpaceOnUse"
     x1="266.23779"
     x2="266.23779"
     xlink:href="#c"
     y1="-17.7209"
     y2="163.6125"
     gradientTransform="matrix(5.98238,0,0,5.98238,272.55612,86.369557)" />
  <linearGradient
     id="e"
     gradientUnits="userSpaceOnUse"
     x1="171.582"
     x2="171.582"
     y1="106.7791"
     y2="197.1125"
     gradientTransform="matrix(5.98238,0,0,5.98238,272.55612,86.369557)">
    <stop
       offset=".0051"
       stop-color="#9ca3a6"
       id="stop7" />
    <stop
       offset="1"
       stop-color="#454547"
       id="stop8" />
  </linearGradient>
  <linearGradient
     id="f"
     gradientTransform="matrix(5.98238,0,0,-5.98238,4185.0326,2534.5096)"
     gradientUnits="userSpaceOnUse"
     x1="-429.7236"
     x2="-429.7236"
     xlink:href="#a"
     y1="284.8176"
     y2="154.6304" />
  <linearGradient
     id="g"
     gradientUnits="userSpaceOnUse"
     x1="223.1924"
     x2="223.1924"
     xlink:href="#c"
     y1="122.2791"
     y2="219.6125"
     gradientTransform="matrix(5.98238,0,0,5.98238,272.55612,86.369557)" />
  <linearGradient
     id="h"
     gradientTransform="matrix(5.98238,0,0,-5.98238,4185.0326,2534.5096)"
     gradientUnits="userSpaceOnUse"
     x1="-296.2861"
     x2="-296.2861"
     xlink:href="#a"
     y1="284.83521"
     y2="153.83521" />
  <linearGradient
     id="i"
     gradientUnits="userSpaceOnUse"
     x1="358.88919"
     x2="358.88919"
     xlink:href="#c"
     y1="122.2791"
     y2="219.6125"
     gradientTransform="matrix(5.98238,0,0,5.98238,272.55612,86.369557)" />
  <g
     id="g2">
    <g
       id="g1"
       transform="matrix(1,0,0,1.000214,54.703996,17.33871)"
       style="fill:#ffffff">
      <g
         id="g15"
         style="fill:#ffffff">
        <path
           id="path8"
           style="fill:#ffffff;stroke-width:5.98238"
           d="m 2671.7598,564.71484 c -12.5821,12.88277 -25.1641,25.76565 -37.7461,38.64844 0,-181.60417 0,-363.20833 0,-544.812499 -113.4355,115.755249 -226.8713,231.510199 -340.3067,347.265629 0,-115.97722 0,-231.95443 0,-347.931644 -209.5929,210.143364 -419.187,420.285654 -628.7793,630.429684 0,-210.15755 0,-420.3151 0,-630.472653 -195.8411,196.184223 -391.6821,392.368613 -587.5234,588.552733 0,-196.55664 0,-393.11328 0,-589.669921 C 957.59122,173.14396 837.77754,289.56268 717.96484,405.98242 c 0,-116.27604 0,-232.55208 0,-348.828123 C 485.63411,285.67513 253.30339,514.19596 20.972656,742.7168 c 73.369141,0 146.738284,0 220.107424,0 126.43376,-130.77979 252.8662,-261.56086 379.30078,-392.33985 0,120.41016 0,240.82032 0,361.23047 103.52865,-103.52864 207.05729,-207.05729 310.58594,-310.58594 0,124.26823 0,248.53646 0,372.80469 -86.75977,86.76041 -173.51953,173.52084 -260.2793,260.28123 77.55273,0 155.10547,0 232.6582,0 204.1732,-204.17316 408.3464,-408.34633 612.5195,-612.51951 0,107.04297 0,214.08594 0,321.12891 94.946,0 189.892,0 284.8379,0 127.6921,-127.69012 255.3842,-255.38016 383.0762,-383.07032 0,117.32032 0,234.64063 0,351.96094 100.8691,-100.86849 201.7383,-201.73696 302.6074,-302.60547 0,111.23828 0,222.47657 0,333.71485 233.4121,0 466.8242,0 700.2363,0 49.1452,-49.14519 98.2904,-98.29037 147.4356,-147.43555 -183.4421,0 -366.8841,0 -550.3262,0 56.2973,-53.553 112.5955,-107.10504 168.8946,-160.65625 61.3795,0 122.7591,0 184.1386,0 45.987,-45.98893 91.974,-91.97786 137.961,-137.9668 -57.3529,0 -114.7058,0 -172.0586,0 57.5278,-51.97208 115.0549,-103.945 172.582,-155.91797 108.6491,0 217.2982,0 325.9473,0 36.9375,-38.02408 73.875,-76.048173 110.8125,-114.072261 -171.5482,0 -343.0964,0 -514.6446,0 C 3022.1634,206.01693 2846.9616,385.36589 2671.7598,564.71484 Z" />
        <path
           d="M 595.89179,1065.0809 899.99412,760.99657 V 475.79258 L 589.40689,786.36186 589.39493,426.97038 254.21414,773.6852 H -54.703996 L 748.93902,-16.760692 V 332.68209 L 1108.3784,-16.569256 V 571.51066 L 1695.9019,-17.023917 1695.89,613.38134 2324.668,-17.047846 V 329.94216 L 2664.9877,-17.335 V 527.31284 L 3184.324,-4.3173414 h 579.7405 v 8.9855347 -8.9855347 h 21.2315 L 3614.3076,171.70223 h -327.1405 l -104.0036,93.97122 h 166.352 l -199.9252,199.91918 -184.5863,-0.012 -103.7943,98.7332 h 547.6091 L 3199.4475,773.6852 H 2455.401 V 483.77308 L 2152.7942,786.37981 V 434.41844 L 1813.5215,773.6852 h -328.6361 l -0.012,-277.31323 -568.70303,568.70893 z M 917.94126,768.42668 639.25208,1047.1218 H 908.73437 L 1502.8385,452.99972 v 302.72039 h 303.2469 l 364.6679,-364.64999 v 351.96136 l 302.6008,-302.57682 v 315.2834 h 718.6573 l 173.4771,-173.48902 h -549.1526 l 141.4833,-134.60355 h 184.335 l 164.013,-164.01892 H 3136.5248 L 3280.2515,153.76705 H 3606.698 L 3742.8091,13.647746 3191.8678,13.629799 2647.0285,571.3611 V 26.65344 L 2306.7089,373.9306 V 26.366286 L 1677.9428,656.80744 V 26.366286 L 1090.4252,614.92479 V 25.893678 L 730.99188,375.13306 V 26.073149 L -10.835203,755.72011 H 246.60456 L 607.36002,382.56317 V 743.04344 L 917.94724,432.47417 Z"
           fill="url(#d)"
           id="path9"
           style="fill:#ffffff;stroke-width:5.98238" />
        <path
           id="path10"
           style="fill:#ffffff;stroke-width:5.98238"
           d="m 1036.5566,1107.6465 c 88.933,0 177.8659,0 266.7989,0 0,44.5371 0,89.0742 0,133.6113 21.569,0 43.138,0 64.707,0 0,-44.5371 0,-89.0742 0,-133.6113 41.1882,0 82.3763,0 123.5645,0 22.7252,-21.2363 45.4505,-42.4727 68.1757,-63.709 -63.9134,0 -127.8268,0 -191.7402,0 0,-86.1849 0,-172.36979 0,-258.55469 -110.502,107.42123 -221.0039,214.84249 -331.5059,322.26369 z m 266.7989,-188.89845 c 0,41.72981 0,83.45965 0,125.18945 -39.5039,0 -79.0078,0 -118.5117,0 39.5033,-43.4549 79.0075,-86.90913 118.5117,-130.36328 0,1.72461 0,3.44922 0,5.17383 z" />
        <path
           d="M 1279.3667,1265.2394 V 1131.6289 H 977.47192 L 1392.0449,728.60796 v 291.34194 h 228.5329 l -119.4981,111.679 -109.0348,-0.012 v 133.6224 z m -272.4076,-145.5872 h 284.3784 v 133.6165 h 88.7366 v -133.6165 h 116.2855 l 93.8755,-87.7376 h -204.1786 v -5.9764 h 5.9884 -5.9884 v 5.9764 h -5.9824 V 756.92855 Z m 205.046,-87.7376 79.3384,-87.25897 v 81.28257 5.9764 z m 73.35,-5.9764 v -5.9883 z m -46.2916,-5.9883 h 40.3032 v -44.34742 z"
           fill="url(#e)"
           id="path11"
           style="fill:#ffffff;stroke-width:5.98238" />
        <path
           id="path12"
           style="fill:#ffffff;stroke-width:5.98238"
           d="m 1297.8125,1546.3496 c 56.6816,0 113.3633,0 170.0449,0 133.6134,-137.3696 267.2257,-274.7404 400.8399,-412.1094 0,77.5463 0,155.0925 0,232.6387 30.2884,0 60.5768,0 90.8652,0 0,-157.1491 0,-314.2982 0,-471.44726 -220.5833,216.97266 -441.1667,433.94536 -661.75,650.91796 z" />
        <path
           d="m 1248.9703,1575.3241 v -8.9736 l 6.2815,6.3892 -6.2815,-6.3892 v 8.9736 h -21.9374 l 761.4912,-749.0478 v 569.5704 h -148.7998 v -190.2815 l -359.6487,369.7589 z m 21.9015,-17.9471 201.6122,-0.012 385.1695,-395.9977 v 216.5323 h 112.9294 V 869.1221 Z"
           fill="url(#g)"
           id="path13"
           style="fill:#ffffff;stroke-width:5.98238" />
        <path
           id="path14"
           style="fill:#ffffff;stroke-width:5.98238"
           d="m 2256.0508,974.72266 c 0,110.15164 0,220.30334 0,330.45504 -40.7507,0 -81.5013,0 -122.252,0 0,-135.5338 0,-271.0677 0,-406.60153 -23.5579,25.31055 -47.1159,50.6211 -70.6738,75.93164 0,130.79039 0,261.58069 0,392.37109 222.4967,0 444.9935,0 667.4902,0 -22.3795,-20.5671 -44.7591,-41.1341 -67.1386,-61.7012 -110.7552,0 -221.5105,0 -332.2657,0 0,-136.0221 0,-272.0442 0,-408.06637 -25.0533,25.87044 -50.1067,51.74088 -75.1601,77.61133 z" />
        <path
           d="M 2034.1517,1395.8467 V 963.0694 l 113.061,-121.48419 15.5542,-16.68486 v 451.29285 h 64.3105 V 962.97368 l 133.096,-137.41527 v 450.64669 h 314.5895 l 130.2244,119.6416 z m 17.9351,-425.70613 v 407.75903 h 706.8182 l -91.1355,-83.7593 h -325.5253 l -0.012,-424.26442 -97.2017,100.36639 V 1294.1403 H 2144.8257 V 870.51002 Z"
           fill="url(#i)"
           id="path15"
           style="fill:#ffffff;stroke-width:5.98238" />
      </g>
    </g>
  </g>
</svg>
